static/images/invite/whatsapp.svg

<svg width="40" height="40" viewBox="0 0 40 40" fill="none" xmlns="http://www.w3.org/2000/svg">
<rect width="40" height="40" rx="20" fill="white" fill-opacity="0.08"/>
<g clip-path="url(#clip0_11686_8009)">
<path fill-rule="evenodd" clip-rule="evenodd" d="M27.8026 12.1647C25.7389 10.0985 22.9943 8.9602 20.0704 8.95898C14.0455 8.95898 9.14199 13.8623 9.13957 19.8889C9.13876 21.8154 9.64203 23.696 10.5986 25.3537L9.04788 31.0178L14.8425 29.4978C16.4392 30.3687 18.2367 30.8277 20.066 30.8282H20.0706C26.0949 30.8282 30.9989 25.9245 31.0012 19.8977C31.0024 16.9769 29.8664 14.2307 27.8026 12.1647ZM20.0704 28.9822H20.0667C18.4365 28.9816 16.8377 28.5435 15.4426 27.7159L15.111 27.5189L11.6723 28.4209L12.5902 25.0684L12.3741 24.7246C11.4646 23.2781 10.9844 21.6062 10.9852 19.8896C10.987 14.8804 15.0628 10.8051 20.0741 10.8051C22.5007 10.8059 24.7819 11.7522 26.4972 13.4694C28.2124 15.1867 29.1565 17.4694 29.1557 19.897C29.1535 24.9065 25.0781 28.9822 20.0704 28.9822ZM25.0539 22.1779C24.7808 22.0411 23.438 21.3805 23.1875 21.2893C22.9374 21.1981 22.7551 21.1527 22.5732 21.426C22.391 21.6994 21.8677 22.3146 21.7083 22.4968C21.5489 22.6791 21.3897 22.702 21.1166 22.5652C20.8434 22.4285 19.9634 22.14 18.9201 21.2095C18.1082 20.4853 17.5601 19.591 17.4007 19.3176C17.2416 19.0441 17.3994 18.9105 17.5205 18.7602C17.8162 18.3931 18.1123 18.0082 18.2033 17.826C18.2944 17.6437 18.2488 17.4842 18.1804 17.3475C18.1123 17.2108 17.5661 15.8665 17.3385 15.3195C17.1166 14.7871 16.8917 14.859 16.7239 14.8507C16.5648 14.8427 16.3826 14.8411 16.2004 14.8411C16.0184 14.8411 15.7225 14.9094 15.4721 15.183C15.2218 15.4564 14.5163 16.1171 14.5163 17.4614C14.5163 18.8058 15.4949 20.1045 15.6315 20.2868C15.768 20.469 17.5574 23.2277 20.2972 24.4107C20.9488 24.6923 21.4575 24.8602 21.8542 24.9861C22.5086 25.194 23.1038 25.1646 23.5745 25.0943C24.0993 25.0159 25.1902 24.4336 25.4181 23.7956C25.6456 23.1576 25.6456 22.6108 25.5772 22.4968C25.5091 22.3829 25.3269 22.3146 25.0539 22.1779Z" fill="url(#paint0_linear_11686_8009)"/>
</g>
<defs>
<linearGradient id="paint0_linear_11686_8009" x1="20.0245" y1="8.95898" x2="20.0245" y2="31.0178" gradientUnits="userSpaceOnUse">
<stop stop-color="#40EB61"/>
<stop offset="1" stop-color="#16C83D"/>
</linearGradient>
<clipPath id="clip0_11686_8009">
<rect width="23.5294" height="23.5294" fill="white" transform="translate(8.23529 8.23535)"/>
</clipPath>
</defs>
</svg>

<svg xmlns="http://www.w3.org/2000/svg" width="40" height="40" fill="none"><rect width="40" height="40" fill="#fff" fill-opacity=".08" rx="20"/><g clip-path="url(#a)"><path fill="url(#b)" fill-rule="evenodd" d="M27.803 12.165a10.86 10.86 0 0 0-7.733-3.206c-6.024 0-10.928 4.903-10.93 10.93-.001 1.926.502 3.807 1.459 5.465l-1.551 5.664 5.794-1.52a10.92 10.92 0 0 0 5.224 1.33h.005c6.024 0 10.928-4.904 10.93-10.93a10.864 10.864 0 0 0-3.198-7.733ZM20.07 28.982h-.003a9.073 9.073 0 0 1-4.624-1.266l-.332-.197-3.439.902.918-3.353-.216-.343a9.062 9.062 0 0 1-1.389-4.835c.002-5.01 4.078-9.085 9.09-9.085 2.426 0 4.707.947 6.422 2.664a9.032 9.032 0 0 1 2.659 6.428c-.002 5.01-4.078 9.085-9.086 9.085Zm4.984-6.804c-.273-.137-1.616-.797-1.866-.889-.25-.09-.433-.136-.615.137s-.705.889-.865 1.07c-.16.183-.318.206-.591.07-.274-.137-1.154-.426-2.197-1.357-.812-.724-1.36-1.618-1.52-1.891-.158-.274 0-.408.12-.558.296-.367.592-.752.683-.934.091-.182.046-.342-.023-.479-.068-.136-.614-1.48-.841-2.028-.222-.532-.447-.46-.615-.468a10.84 10.84 0 0 0-.524-.01c-.182 0-.477.068-.728.342-.25.273-.956.934-.956 2.278 0 1.345.979 2.644 1.116 2.826.136.182 1.925 2.94 4.665 4.124.652.281 1.16.45 1.557.575.655.208 1.25.179 1.72.108.525-.078 1.616-.66 1.844-1.298.228-.638.228-1.185.16-1.3-.069-.113-.251-.181-.524-.318Z" clip-rule="evenodd"/></g><defs><linearGradient id="b" x1="20.024" x2="20.024" y1="8.959" y2="31.018" gradientUnits="userSpaceOnUse"><stop stop-color="#40EB61"/><stop offset="1" stop-color="#16C83D"/></linearGradient><clipPath id="a"><path fill="#fff" d="M8.235 8.235h23.53v23.53H8.234z"/></clipPath></defs></svg>
